X: 159
T: No_91_The_Dawn_Approaches.krn
N: Derived from No_91_The_Dawn_Approaches.krn
%%abc-version 2.0
%%abcx-abcm2ps-target-version 5.9.1 (29 Sep 2008)
%%abc-creator hum2abc beta
%%abcx-conversion-date 2019/03/15 08:37:56
%%humdrum-veritas 1362581136
%%humdrum-veritas-data 1117178973
%%linebreak <none>
%%barnumbers 0
L: 1/8
M: 2/4
K: Ab clef=bass
[K:clef=bass][M:2/4]A,2B,A, | 
A,2F,E, | 
E,2E,A, | 
A,2A,2 | 
A,F, A,A, ||  
[M:3/4]A,2F,E,E,2 ||  
[M:2/4]A,2F,E, | 
E,2C, z | 
F,E, F,E, | 
E,2C,2 ||  
[M:3/4]E,E,E,2C,2 ||  
[M:2/4]E,E,E,2 ||  
[M:3/4]E,E,E,2z2 | 
[M:2/4]z2E,2 [I:setbarnb 15]| 
C2CB, | 
A,2A,2 | 
B,A,A,2 ||  
[M:3/4]F,E,E,2A,A, ||  
[M:2/4]A,2A,2 | 
A,F, A,A, ||  
[M:3/4]A,2F,E,E,2 ||  
[M:2/4]A,2F,E, | 
E,2C, z | 
F,E, F,E, | 
E,2C,2 ||  
[M:3/4]E,E,E,2C,2 ||  
[M:2/4]E,E,E,2 | 
E,E,E,2 :|]  



